icons/gleam.svg

<svg width="16" height="16" viewBox="0 0 16 16" fill="none" xmlns="http://www.w3.org/2000/svg">
<path d="M6.62895 2.12984C6.76456 1.7988 7.19403 1.71314 7.44633 1.96675L9.90337 4.4355C9.98812 4.52069 10.1009 4.57303 10.2207 4.58199L13.6944 4.84175C14.0508 4.86872 14.2648 5.25013 14.1016 5.56831L12.5118 8.66792C12.4571 8.77479 12.4432 8.89797 12.4717 9.0146L13.2979 12.3984C13.3827 12.7459 13.0856 13.0676 12.7325 13.0107L9.29399 12.457C9.17535 12.4379 9.05343 12.4622 8.95122 12.5253L5.98833 14.3564C5.68414 14.5444 5.28674 14.362 5.23149 14.0087L4.69536 10.5664C4.67681 10.4477 4.61606 10.3393 4.52446 10.2617L1.86723 8.0107C1.5943 7.77943 1.64573 7.34416 1.96489 7.18257L5.07231 5.60933C5.17945 5.55504 5.26311 5.46364 5.30864 5.35249L6.62895 2.12984ZM9.08891 8.70894C8.87581 8.76705 8.74959 8.98801 8.80766 9.20113C8.84956 9.35551 8.75881 9.5143 8.60454 9.55659C8.44996 9.59873 8.2903 9.50801 8.24809 9.35347C8.19 9.14042 7.96995 9.01425 7.75688 9.07222C7.54389 9.13028 7.41783 9.35043 7.47563 9.56343C7.63396 10.1443 8.23365 10.4863 8.8145 10.3281C9.39523 10.1696 9.73845 9.571 9.58012 8.99019C9.52205 8.77725 9.30187 8.65118 9.08891 8.70894ZM6.09868 7.68257C5.64192 7.68262 5.27156 8.05295 5.27153 8.50972C5.27161 8.96644 5.64195 9.33682 6.09868 9.33687C6.55543 9.33684 6.92575 8.96645 6.92583 8.50972C6.9258 8.05294 6.55546 7.6826 6.09868 7.68257ZM10.4698 6.85542C10.013 6.85542 9.64265 7.22578 9.64262 7.68257C9.6427 8.13933 10.013 8.50972 10.4698 8.50972C10.9264 8.5095 11.2968 8.13919 11.2969 7.68257C11.2969 7.22591 10.9264 6.85564 10.4698 6.85542Z" fill="#E483E0"/>
</svg>

<svg xmlns="http://www.w3.org/2000/svg" width="16" height="16" fill="none" viewBox="0 0 16 16"><path fill="#E483E0" d="M6.629 2.13a.5.5 0 0 1 .817-.163l2.457 2.468a.5.5 0 0 0 .318.147l3.473.26a.5.5 0 0 1 .408.726l-1.59 3.1a.5.5 0 0 0-.04.347l.826 3.383a.5.5 0 0 1-.566.613l-3.438-.554a.5.5 0 0 0-.343.068l-2.963 1.831a.5.5 0 0 1-.757-.347l-.536-3.443a.5.5 0 0 0-.17-.304L1.866 8.01a.5.5 0 0 1 .098-.828l3.107-1.574a.5.5 0 0 0 .237-.257zm2.46 6.579a.4.4 0 0 0-.281.492.29.29 0 0 1-.56.152.4.4 0 0 0-.772.21A1.09 1.09 0 0 0 9.58 8.99a.4.4 0 0 0-.491-.281m-2.99-1.026a.827.827 0 1 0 0 1.654.827.827 0 0 0 0-1.654m4.37-.828a.827.827 0 1 0 0 1.655.827.827 0 0 0 0-1.655"/></svg>
